Newaita-dark/.LP/24/battery-medium-charging.svg

<?xml version="1.0" encoding="UTF-8"?>
<svg xmlns="http://www.w3.org/2000/svg" xmlns:xlink="http://www.w3.org/1999/xlink" width="24pt" height="24pt" viewBox="0 0 24 24" version="1.1">
<g id="surface1">
<path style=" stroke:none;fill-rule:nonzero;fill:rgb(25.882354%,25.882354%,25.882354%);fill-opacity:1;" d="M 2.976562 4.652344 C 2.152344 4.652344 1.488281 5.316406 1.488281 6.140625 L 1.488281 18.046875 C 1.488281 18.875 2.152344 19.535156 2.976562 19.535156 L 12.277344 19.535156 C 12.09375 19.070312 11.976562 18.570312 11.929688 18.046875 L 3.96875 18.046875 C 3.417969 18.046875 2.976562 17.605469 2.976562 17.054688 L 2.976562 7.132812 C 2.976562 6.582031 3.417969 6.140625 3.96875 6.140625 L 18.851562 6.140625 C 19.402344 6.140625 19.84375 6.582031 19.84375 7.132812 L 19.84375 12.6875 C 20.980469 13.261719 21.882812 14.222656 22.382812 15.398438 C 22.648438 15.222656 22.824219 14.917969 22.824219 14.574219 L 22.824219 9.613281 C 22.824219 9.066406 22.378906 8.621094 21.832031 8.621094 L 21.335938 8.621094 L 21.335938 6.140625 C 21.335938 5.316406 20.671875 4.652344 19.84375 4.652344 Z M 2.976562 4.652344 "/>
<path style=" stroke:none;fill-rule:nonzero;fill:rgb(25.882354%,25.882354%,25.882354%);fill-opacity:1;" d="M 4.960938 7.628906 L 5.953125 7.628906 C 6.226562 7.628906 6.449219 7.828125 6.449219 8.074219 L 6.449219 16.113281 C 6.449219 16.359375 6.226562 16.558594 5.953125 16.558594 L 4.960938 16.558594 C 4.6875 16.558594 4.464844 16.359375 4.464844 16.113281 L 4.464844 8.074219 C 4.464844 7.828125 4.6875 7.628906 4.960938 7.628906 Z M 4.960938 7.628906 "/>
<path style=" stroke:none;fill-rule:nonzero;fill:rgb(25.882354%,25.882354%,25.882354%);fill-opacity:1;" d="M 8.929688 7.628906 L 9.921875 7.628906 C 10.195312 7.628906 10.417969 7.828125 10.417969 8.074219 L 10.417969 16.113281 C 10.417969 16.359375 10.195312 16.558594 9.921875 16.558594 L 8.929688 16.558594 C 8.65625 16.558594 8.433594 16.359375 8.433594 16.113281 L 8.433594 8.074219 C 8.433594 7.828125 8.65625 7.628906 8.929688 7.628906 Z M 8.929688 7.628906 "/>
<path style=" stroke:none;fill-rule:nonzero;fill:rgb(25.882354%,25.882354%,25.882354%);fill-opacity:0.392157;" d="M 12.898438 7.628906 C 12.625 7.628906 12.402344 7.828125 12.402344 8.074219 L 12.402344 15.269531 C 12.835938 14.328125 13.527344 13.53125 14.386719 12.972656 L 14.386719 8.074219 C 14.386719 7.828125 14.167969 7.628906 13.890625 7.628906 Z M 12.898438 7.628906 "/>
<path style=" stroke:none;fill-rule:nonzero;fill:rgb(25.882354%,25.882354%,25.882354%);fill-opacity:0.392157;" d="M 16.867188 7.628906 C 16.59375 7.628906 16.371094 7.828125 16.371094 8.074219 L 16.371094 12.183594 C 16.695312 12.125 17.027344 12.09375 17.363281 12.09375 C 17.703125 12.09375 18.035156 12.125 18.355469 12.183594 L 18.355469 8.074219 C 18.355469 7.828125 18.136719 7.628906 17.859375 7.628906 Z M 16.867188 7.628906 "/>
<path style=" stroke:none;fill-rule:evenodd;fill:rgb(100%,43.921569%,26.274511%);fill-opacity:1;" d="M 19.597656 13.582031 L 14.140625 18.046875 L 16.621094 18.046875 L 15.132812 21.523438 L 20.589844 17.054688 L 18.109375 17.054688 Z M 19.597656 13.582031 "/>
</g>
</svg>

<svg xmlns="http://www.w3.org/2000/svg" width="32" height="32" viewBox="0 0 24 24"><path d="M2.977 4.652c-.825 0-1.489.664-1.489 1.489v11.906c0 .828.664 1.488 1.489 1.488h9.3a5.343 5.343 0 0 1-.347-1.488H3.969a.989.989 0 0 1-.992-.992V7.133c0-.551.441-.992.992-.992h14.883c.55 0 .992.441.992.992v5.554a5.414 5.414 0 0 1 2.539 2.711.988.988 0 0 0 .441-.824v-4.96a.994.994 0 0 0-.992-.993h-.496v-2.48c0-.825-.664-1.489-1.492-1.489zm0 0" fill="#424242"/><path d="M4.96 7.629h.993c.274 0 .496.2.496.445v8.04c0 .245-.222.445-.496.445h-.992c-.274 0-.496-.2-.496-.446V8.074c0-.246.223-.445.496-.445zm0 0M8.93 7.629h.992c.273 0 .496.2.496.445v8.04c0 .245-.223.445-.496.445H8.93c-.274 0-.496-.2-.496-.446V8.074c0-.246.222-.445.496-.445zm0 0" fill="#424242"/><path d="M12.898 7.629c-.273 0-.496.2-.496.445v7.196a5.472 5.472 0 0 1 1.985-2.297V8.074c0-.246-.219-.445-.496-.445zm0 0M16.867 7.629c-.273 0-.496.2-.496.445v4.11a5.58 5.58 0 0 1 1.984 0v-4.11c0-.246-.218-.445-.496-.445zm0 0" fill="#424242" fill-opacity=".392"/><path d="M19.598 13.582l-5.457 4.465h2.48l-1.488 3.476 5.457-4.468h-2.48zm0 0" fill-rule="evenodd" fill="#ff7043"/></svg>
